img/twitter.svg

<?xml version="1.0" encoding="UTF-8"?>
<svg width="60px" height="60px" viewBox="0 0 60 60" version="1.1" xmlns="http://www.w3.org/2000/svg" xmlns:xlink="http://www.w3.org/1999/xlink">
    <!-- Generator: Sketch 47.1 (45422) - http://www.bohemiancoding.com/sketch -->
    <title>icon/60/Twitter</title>
    <desc>Created with Sketch.</desc>
    <defs></defs>
    <g id="Assets" stroke="none" stroke-width="1" fill="none" fill-rule="evenodd">
        <g id="icon/60/Twitter" fill="#858B9A">
            <path d="M30,60 C13.4314575,60 0,46.5685425 0,30 C0,13.4314575 13.4314575,0 30,0 C46.5685425,0 60,13.4314575 60,30 C60,46.5685425 46.5685425,60 30,60 Z M45.1094102,21.7312255 C44.0672215,22.1804448 42.9351888,22.5038827 41.7672187,22.6296641 C42.9711264,21.9109132 43.8875338,20.7788806 44.3187843,19.4312227 C43.2047204,20.0960672 41.9469064,20.5812241 40.6351861,20.8327869 C39.5750285,19.7007543 38.0656517,18.9999722 36.3945559,18.9999722 C33.1781458,18.9999722 30.5906427,21.6054441 30.5906427,24.8038854 C30.5906427,25.2531047 30.644549,25.702324 30.7343928,26.1335745 C25.918762,25.8820117 21.6242256,23.582009 18.7671908,20.0601297 C18.2640652,20.9226307 17.9765649,21.9109132 17.9765649,22.9890395 C17.9765649,25.0015419 19.0007849,26.7804503 20.564068,27.8226391 C19.6117231,27.7867015 18.7132845,27.51717 17.9406273,27.0859195 L17.9406273,27.1577945 C17.9406273,29.9788917 19.935161,32.314832 22.5945392,32.8538952 C22.1093824,32.9796766 21.588288,33.0515517 21.0671936,33.0515517 C20.6898494,33.0515517 20.330474,33.0156141 19.9710986,32.9617078 C20.7078182,35.2617106 22.846102,36.9328064 25.3976676,36.9867127 C23.403134,38.5499958 20.9054747,39.4664032 18.1921902,39.4664032 C17.7070333,39.4664032 17.257814,39.4484344 16.790626,39.3945281 C19.3601603,41.0476551 22.4148515,42 25.7031367,42 C36.3765872,42 42.216438,33.1593643 42.216438,25.4866988 C42.216438,25.235136 42.216438,24.9835732 42.1984692,24.7320104 C43.3305018,23.9054469 44.3187843,22.8812269 45.1094102,21.7312255 Z" id="Combined-Shape"></path>
        </g>
    </g>
</svg>

<svg width="60" height="60" viewBox="0 0 60 60" xmlns="http://www.w3.org/2000/svg"><path d="M30 60C13.431 60 0 46.569 0 30 0 13.431 13.431 0 30 0c16.569 0 30 13.431 30 30 0 16.569-13.431 30-30 30zm15.11-38.269c-1.043.45-2.175.773-3.343.899a5.788 5.788 0 002.552-3.199 11.426 11.426 0 01-3.684 1.402A5.79 5.79 0 0036.395 19a5.801 5.801 0 00-5.804 5.804c0 .45.054.898.143 1.33a16.497 16.497 0 01-11.967-6.074 5.76 5.76 0 00-.79 2.929 5.8 5.8 0 002.587 4.834 5.846 5.846 0 01-2.623-.737v.072a5.805 5.805 0 004.654 5.696 6.136 6.136 0 01-1.528.198 7.3 7.3 0 01-1.096-.09 5.814 5.814 0 005.427 4.025 11.623 11.623 0 01-7.206 2.48 12 12 0 01-1.401-.072A16.4 16.4 0 0025.703 42c10.674 0 16.513-8.84 16.513-16.513 0-.252 0-.503-.018-.755a12.477 12.477 0 002.911-3z" fill="#858B9A" fill-rule="evenodd"/></svg>
